svgs/microsoft_office.svg

<svg width="24" height="24" viewBox="0 0 24 24" fill="none" xmlns="http://www.w3.org/2000/svg">
<path d="M14.2969 19.875C14.2981 20.32 14.1538 20.7531 13.8861 21.1086C13.6183 21.464 12.4433 22.0939 12.0153 22.2155L18.4214 20.2458C18.8397 20.1256 19.2076 19.8728 19.4698 19.5254C19.7319 19.178 19.8741 18.7549 19.875 18.3197V5.68032C19.8752 5.244 19.733 4.81952 19.4701 4.47132C19.2072 4.12312 18.8378 3.8702 18.4181 3.75094L12.0153 1.94179C12.4477 2.06537 13.6059 2.54127 13.8772 2.90002C14.149 3.25937 14.2963 3.69744 14.2969 4.14797L14.2969 19.875Z" fill="#FFF1C0"/>
<path fill-rule="evenodd" clip-rule="evenodd" d="M12.02 20.0123C12.128 19.9508 12.222 19.8928 12.2969 19.8432L12.2969 17.5781H8.03951C7.80838 17.5806 7.58443 17.6588 7.402 17.8007C7.21957 17.9427 7.08873 18.1405 7.02952 18.364C6.97031 18.5874 6.986 18.8241 7.07419 19.0378C7.16239 19.2514 7.31821 19.4303 7.51779 19.5469L9.91496 20.9058L11.4448 20.2985L11.4624 20.2916C11.4942 20.2788 11.5414 20.2585 11.6025 20.2299C11.7254 20.1724 11.8732 20.0961 12.02 20.0123ZM9.85072 3.07786C9.97554 3.13666 10.1439 3.21628 10.3288 3.30375C10.904 3.5758 11.6396 3.92372 11.7249 3.95693C11.8588 4.00907 12.0081 4.07255 12.1488 4.13938C12.2038 4.1655 12.2533 4.19012 12.2969 4.21279L12.2969 6.32444L9.00422 7.51453C8.72837 7.61534 8.49013 7.79842 8.32171 8.03903C8.15329 8.27963 8.06281 8.56615 8.0625 8.85984V14.6895C8.06304 14.9462 7.99447 15.1984 7.86399 15.4195C7.73352 15.6406 7.54594 15.8225 7.32094 15.9462L5.68032 16.8321C5.51968 16.9192 5.33916 16.963 5.15647 16.9592C4.97379 16.9554 4.79523 16.9042 4.63834 16.8105C4.48145 16.7169 4.35163 16.584 4.26163 16.425C4.17163 16.2659 4.12454 16.0862 4.125 15.9035V7.54406C4.125 7.19079 4.2185 6.8438 4.396 6.53836C4.57351 6.23292 4.82869 5.9799 5.13563 5.805L9.85072 3.07786Z" fill="#FFF1C0"/>
</svg>

<svg xmlns="http://www.w3.org/2000/svg" width="24" height="24" fill="none" viewBox="0 0 24 24"><path fill="#FFF1C0" d="M14.297 19.875c.001.445-.143.878-.41 1.234-.269.355-1.444.985-1.872 1.106l6.406-1.97a2.008 2.008 0 0 0 1.454-1.925V5.68a2.005 2.005 0 0 0-1.457-1.93l-6.403-1.808c.433.123 1.59.6 1.862.958.272.36.42.797.42 1.248z"/><path fill="#FFF1C0" fill-rule="evenodd" d="M12.02 20.012c.108-.061.202-.12.277-.169v-2.265H8.04a1.057 1.057 0 0 0-.522 1.969l2.397 1.359 1.53-.607.017-.007a6.004 6.004 0 0 0 .558-.28M9.85 3.078l.479.226c.575.272 1.31.62 1.396.653a6.57 6.57 0 0 1 .572.256v2.111l-3.293 1.19a1.434 1.434 0 0 0-.941 1.346v5.83a1.43 1.43 0 0 1-.742 1.256l-1.64.886a1.053 1.053 0 0 1-1.556-.929V7.544a2.002 2.002 0 0 1 1.01-1.739l4.716-2.727Z" clip-rule="evenodd"/></svg>
